src/resources/tecsvg/expressjs.svg

<svg xmlns="http://www.w3.org/2000/svg" width="400" height="116.48"><path d="M0 46.56v46.56l32.12-.009 32.12-.008 12.527-16.315 12.528-16.314 12.592 16.315 12.593 16.315 1.72.008c.946.004 1.72-.029 1.72-.074 0-.046-5.944-7.757-13.209-17.137S91.424 58.723 91.33 58.571c-.145-.231 1.782-2.854 12.008-16.343 6.7-8.838 12.181-16.125 12.181-16.194.001-.069-.734-.105-1.631-.08l-1.633.046-11.423 15.04c-6.283 8.272-11.47 15.054-11.527 15.072-.058.017-5.145-6.769-11.305-15.08L66.8 25.921l-1.737-.001c-1.498 0-1.724.034-1.643.246.052.136 5.5 7.413 12.107 16.172 6.606 8.76 11.989 15.993 11.962 16.073-.264.79-25.176 32.682-25.219 32.287l-.05-.458H2.72V45.92h55.52V43.2H2.72V2.72h59.04V0H0v46.56m148.8-21.906c-10.579 1.362-18.932 8.312-22.577 18.786l-.445 1.28-.009-9.4-.009-9.4h-2.88V116h2.88l.009-20.84.008-20.84.38 1.28c3.106 10.468 11.181 17.236 22.243 18.644 18.725 2.382 32.057-11.201 32.824-33.444.796-23.083-13.148-38.627-32.424-36.146m67.324.071c-9.924 1.353-17.026 7.07-19.917 16.032l-.607 1.883-.041-8.36-.042-8.36H192.8v67.2h2.701l.062-20.52c.056-18.183.093-20.73.332-22.36 2.071-14.15 10.673-22.654 23.265-22.999l2.92-.08V24.48l-2.2.016c-1.21.01-2.9.112-3.756.229m31.956.003c-18.213 2.75-28.67 21.934-24.554 45.047 2.565 14.405 10.818 23.045 23.369 24.467 17.606 1.994 30.952-7.046 33.424-22.642a51.39 51.39 0 0 1 .252-1.48c.073-.352.043-.36-1.331-.36h-1.405l-.363 1.852c-2.592 13.23-12.517 20.675-26.903 20.182-15.368-.526-24.126-10.852-25.073-29.56l-.105-2.074h56.1l-.104-2.92c-.774-21.924-14.526-35.347-33.307-32.512m61.04-.08c-12.618 1.542-19.59 9.52-17.861 20.437 1.29 8.143 4.452 10.054 25.209 15.235 7.992 1.995 9.549 2.464 11.983 3.609 6.278 2.952 9.063 7.451 8.489 13.712-.788 8.607-9.214 14.097-21.66 14.113-15.308.019-23.491-6.666-24.035-19.634l-.092-2.2h-2.874l.109 1.8c.946 15.638 9.229 22.668 26.732 22.687 14.884.017 23.94-6.363 24.658-17.37.444-6.818-2.423-11.753-8.722-15.01-2.771-1.433-5.433-2.248-17.856-5.468-14.357-3.721-17.544-5.58-18.974-11.069-2.459-9.442 4.274-17.112 15.934-18.15 15.271-1.359 25.029 5.461 25.039 17.5l.001 1.08h2.72v-1.459c0-10.802-6.186-17.563-17.922-19.59-1.785-.308-8.974-.455-10.878-.223m60.32.011c-12.859 1.479-19.92 9.8-17.817 20.997 1.457 7.76 4.835 9.683 26.311 14.971 12.909 3.18 17.368 5.986 18.958 11.933 3.122 11.679-8.446 20.571-24.892 19.135-13.203-1.153-19.829-7.565-20.56-19.895l-.112-1.88h-2.688V71c.002 15.422 9.15 23.401 26.841 23.409 15.101.008 24.147-6.56 24.474-17.769.182-6.279-1.677-10.134-6.417-13.304-3.476-2.326-5.505-3.009-20.338-6.849-14.453-3.742-17.625-5.714-18.867-11.73-2.318-11.221 7.83-18.866 23.107-17.409 11.197 1.068 17.101 6.446 17.95 16.352l.19 2.22h2.709l-.1-1.96c-.478-9.343-4.666-15.093-13.018-17.873-4.251-1.415-10.727-2.003-15.731-1.428m-211.927 2.942c14.837 2.702 23.625 19.787 20.308 39.482-2.812 16.702-13.633 26.134-28.232 24.611-14.804-1.546-23.423-12.713-23.782-30.814-.438-22.04 13.439-36.605 31.706-33.279m97.973-.232c13.477 1.462 23.074 13.42 23.074 28.75v1.321h-53.161l.115-1.48c1.423-18.357 13.972-30.328 29.972-28.591" fill-rule="evenodd"/></svg>

<svg id="svg" version="1.1" xmlns="http://www.w3.org/2000/svg" xmlns:xlink="http://www.w3.org/1999/xlink" width="400" height="116.48" viewBox="0, 0, 400,116.48"><g id="svgg"><path id="path0" d="M0.000 46.560 L 0.000 93.120 32.120 93.111 L 64.240 93.103 76.767 76.788 L 89.295 60.474 101.887 76.789 L 114.480 93.104 116.200 93.112 C 117.146 93.116,117.920 93.083,117.920 93.038 C 117.920 92.992,111.976 85.281,104.711 75.901 C 97.446 66.521,91.424 58.723,91.330 58.571 C 91.185 58.340,93.112 55.717,103.338 42.228 C 110.038 33.390,115.519 26.103,115.519 26.034 C 115.520 25.965,114.785 25.929,113.888 25.954 L 112.255 26.000 100.832 41.040 C 94.549 49.312,89.362 56.094,89.305 56.112 C 89.247 56.129,84.160 49.343,78.000 41.032 L 66.800 25.921 65.063 25.920 C 63.565 25.920,63.339 25.954,63.420 26.166 C 63.472 26.302,68.920 33.579,75.527 42.338 C 82.133 51.098,87.516 58.331,87.489 58.411 C 87.225 59.201,62.313 91.093,62.270 90.698 L 62.220 90.240 32.470 90.240 L 2.720 90.240 2.720 68.080 L 2.720 45.920 30.480 45.920 L 58.240 45.920 58.240 44.560 L 58.240 43.200 30.480 43.200 L 2.720 43.200 2.720 22.960 L 2.720 2.720 32.240 2.720 L 61.760 2.720 61.760 1.360 L 61.760 0.000 30.880 0.000 L 0.000 0.000 0.000 46.560 M148.800 24.654 C 138.221 26.016,129.868 32.966,126.223 43.440 L 125.778 44.720 125.769 35.320 L 125.760 25.920 124.320 25.920 L 122.880 25.920 122.880 70.960 L 122.880 116.000 124.320 116.000 L 125.760 116.000 125.769 95.160 L 125.777 74.320 126.157 75.600 C 129.263 86.068,137.338 92.836,148.400 94.244 C 167.125 96.626,180.457 83.043,181.224 60.800 C 182.020 37.717,168.076 22.173,148.800 24.654 M216.124 24.725 C 206.200 26.078,199.098 31.795,196.207 40.757 L 195.600 42.640 195.559 34.280 L 195.517 25.920 194.159 25.920 L 192.800 25.920 192.800 59.520 L 192.800 93.120 194.151 93.120 L 195.501 93.120 195.563 72.600 C 195.619 54.417,195.656 51.870,195.895 50.240 C 197.966 36.090,206.568 27.586,219.160 27.241 L 222.080 27.161 222.080 25.820 L 222.080 24.480 219.880 24.496 C 218.670 24.506,216.980 24.608,216.124 24.725 M248.080 24.728 C 229.867 27.478,219.410 46.662,223.526 69.775 C 226.091 84.180,234.344 92.820,246.895 94.242 C 264.501 96.236,277.847 87.196,280.319 71.600 C 280.417 70.984,280.530 70.318,280.571 70.120 C 280.644 69.768,280.614 69.760,279.240 69.760 L 277.835 69.760 277.472 71.612 C 274.880 84.842,264.955 92.287,250.569 91.794 C 235.201 91.268,226.443 80.942,225.496 62.234 L 225.391 60.160 253.441 60.160 L 281.491 60.160 281.387 57.240 C 280.613 35.316,266.861 21.893,248.080 24.728 M309.120 24.648 C 296.502 26.190,289.530 34.168,291.259 45.085 C 292.549 53.228,295.711 55.139,316.468 60.320 C 324.460 62.315,326.017 62.784,328.451 63.929 C 334.729 66.881,337.514 71.380,336.940 77.641 C 336.152 86.248,327.726 91.738,315.280 91.754 C 299.972 91.773,291.789 85.088,291.245 72.120 L 291.153 69.920 289.716 69.920 L 288.279 69.920 288.388 71.720 C 289.334 87.358,297.617 94.388,315.120 94.407 C 330.004 94.424,339.060 88.044,339.778 77.037 C 340.222 70.219,337.355 65.284,331.056 62.027 C 328.285 60.594,325.623 59.779,313.200 56.559 C 298.843 52.838,295.656 50.979,294.226 45.490 C 291.767 36.048,298.500 28.378,310.160 27.340 C 325.431 25.981,335.189 32.801,335.199 44.840 L 335.200 45.920 336.560 45.920 L 337.920 45.920 337.920 44.461 C 337.920 33.659,331.734 26.898,319.998 24.871 C 318.213 24.563,311.024 24.416,309.120 24.648 M369.440 24.659 C 356.581 26.138,349.520 34.459,351.623 45.656 C 353.080 53.416,356.458 55.339,377.934 60.627 C 390.843 63.807,395.302 66.613,396.892 72.560 C 400.014 84.239,388.446 93.131,372.000 91.695 C 358.797 90.542,352.171 84.130,351.440 71.800 L 351.328 69.920 349.984 69.920 L 348.640 69.920 348.640 71.000 C 348.642 86.422,357.790 94.401,375.481 94.409 C 390.582 94.417,399.628 87.849,399.955 76.640 C 400.137 70.361,398.278 66.506,393.538 63.336 C 390.062 61.010,388.033 60.327,373.200 56.487 C 358.747 52.745,355.575 50.773,354.333 44.757 C 352.015 33.536,362.163 25.891,377.440 27.348 C 388.637 28.416,394.541 33.794,395.390 43.700 L 395.580 45.920 396.935 45.920 L 398.289 45.920 398.189 43.960 C 397.711 34.617,393.523 28.867,385.171 26.087 C 380.920 24.672,374.444 24.084,369.440 24.659 M157.513 27.601 C 172.350 30.303,181.138 47.388,177.821 67.083 C 175.009 83.785,164.188 93.217,149.589 91.694 C 134.785 90.148,126.166 78.981,125.807 60.880 C 125.369 38.840,139.246 24.275,157.513 27.601 M255.486 27.369 C 268.963 28.831,278.560 40.789,278.560 56.119 L 278.560 57.440 251.979 57.440 L 225.399 57.440 225.514 55.960 C 226.937 37.603,239.486 25.632,255.486 27.369 " stroke="none" fill="#000000" fill-rule="evenodd"></path></g></svg>
